data/zen-kaku-gothic-new.svg

<svg width="130.42" height="20.272" viewBox="0 0 130.42 20.272" xmlns="http://www.w3.org/2000/svg"><path transform="translate(0 16.24) scale(.014 -.014)" d="M47 0V59L427 642H61V700H502V642L122 59H505V0Z"/><path transform="translate(7.728 16.24) scale(.014 -.014)" d="m270-11q-65 0-115.5 30.5t-79 87-28.5 133.5q0 75 28.5 131t78.5 87.5 114 31.5q65 0 110.5-32.5t69.5-84 24-108.5v-20h-364q-2-90 42.5-145.5t120.5-55.5q56 0 94 28.5t62 84.5l50-29q-64-139-207-139zm-158 308h300q-5 39-24.5 71t-50 51-69.5 19q-61 0-102.5-37.5t-53.5-103.5z"/><path transform="translate(15.064 16.24) scale(.014 -.014)" d="m74 0v479h57l2-68q23 34 61.5 57t87.5 23q77 0 124-49t47-140v-302h-60v293q0 70-33.5 105t-86.5 35q-40 0-71.5-17.5t-49-47-17.5-65.5v-303z"/><path transform="translate(26.376 16.24) scale(.014 -.014)" d="M84 0V700H145V393L481 700H565L202 372L586 0H502L145 353V0Z"/><path transform="translate(34.846 16.24) scale(.014 -.014)" d="m202-9q-70-1-113.5 32t-43.5 96q0 48 32.5 84t83 56.5 104.5 20.5q74 0 117-35v82q0 67-28 87.5t-90 20.5q-40 0-89-14.5t-83-36.5l-29 48q39 25 94.5 42t106.5 17q91 0 134-35t43-129v-265q0-19 10.5-21.5t46.5 4.5v-43q-10-4-27-7.5t-32-3.5q-34 0-44 14t-12 53q-31-34-82-50t-99-17zm3 55q48 1 89.5 15t66 40.5 22.5 64.5q-3 31-34 46.5t-80 14.5q-41 0-79-14t-61.5-38.5-23.5-56.5q0-37 28-54.5t72-17.5z"/><path transform="translate(42.336 16.24) scale(.014 -.014)" d="M74 0V722H135V283L354 479H438L190 262L448 0H369L135 241V0Z"/><path transform="translate(49.014 16.24) scale(.014 -.014)" d="m236-11q-76 0-123 49t-47 140v301h60v-293q0-70 33.5-105t86.5-35q61 0 99 38t38 93v302h61v-478h-57l-2 67q-21-33-60-56t-89-23z"/><path transform="translate(60.2 16.24) scale(.014 -.014)" d="m372-13q-94 0-167.5 46t-115.5 128-42 190 42 190 115.5 128 167.5 46q73 0 132.5-25.5t102.5-72.5l-42-46q-71 83-193 83-78 0-137-38.5t-92-106.5-33-158q0-89 33-158t92-107.5 137-38.5q55 0 95 11t77 33v208h-150v59h212v-305q-32-22-89.5-44t-144.5-22z"/><path transform="translate(69.622 16.24) scale(.014 -.014)" d="m269-11q-64 0-114 32t-79 88.5-29 130.5 29 130.5 79 88.5 114 32q65 0 115-32t79-88.5 29-130.5-29-130.5-79-88.5-115-32zm0 57q47 0 83.5 24t57.5 67.5 21 102.5-21 102.5-57.5 67.5-83.5 24q-70 0-115.5-52.5t-45.5-141.5q0-88 45.5-141t115.5-53z"/><path transform="translate(77.168 16.24) scale(.014 -.014)" d="m261-11q-64 0-96 27t-32 97v310h-104v56h104v176h60v-176h146v-56h-146v-300q0-45 19-61.5t59-16.5q17 0 36 5t32 11v-59q-14-5-36-9t-42-4z"/><path transform="translate(82.446 16.24) scale(.014 -.014)" d="m74 0v722h61v-311q21 34 59.5 57t87.5 23q77 0 124-49t47-140v-302h-60v293q0 70-33.5 105t-86.5 35q-40 0-71.5-17.5t-49-47-17.5-65.5v-303z"/><path transform="translate(89.838 16.24) scale(.014 -.014)" d="m91 0v479h60v-479zm30 583q-19 0-33 13.5t-14 32.5q0 20 14 33t33 13 32-13 13-33q0-19-13-32.5t-32-13.5z"/><path transform="translate(93.212 16.24) scale(.014 -.014)" d="m269-11q-64 0-114 31.5t-79 88.5-29 131 29 130.5 79 88 114 31.5q51 0 94.5-20.5t74.5-60.5l-48-36q-45 60-121 60-70 0-115.5-52.5t-45.5-140.5 45.5-141 115.5-53q76 0 121 60l48-36q-64-81-169-81z"/><path transform="translate(103.92 16.24) scale(.014 -.014)" d="M84 0V700H145L540 110V700H602V0H542L145 596V0Z"/><path transform="translate(113.53 16.24) scale(.014 -.014)" d="m270-11q-65 0-115.5 30.5t-79 87-28.5 133.5q0 75 28.5 131t78.5 87.5 114 31.5q65 0 110.5-32.5t69.5-84 24-108.5v-20h-364q-2-90 42.5-145.5t120.5-55.5q56 0 94 28.5t62 84.5l50-29q-64-139-207-139zm-158 308h300q-5 39-24.5 71t-50 51-69.5 19q-61 0-102.5-37.5t-53.5-103.5z"/><path transform="translate(120.86 16.24) scale(.014 -.014)" d="M179 0 29 479H89L204 98L317 479H366L479 98L594 479H654L504 0H455L342 382L227 0Z"/></svg>

<?xml version="1.0" encoding="utf-8" ?>
<svg baseProfile="tiny" height="100%" version="1.2" width="100%" xmlns="http://www.w3.org/2000/svg" xmlns:ev="http://www.w3.org/2001/xml-events" xmlns:xlink="http://www.w3.org/1999/xlink"><defs /><g><path d="M47 0V59L427 642H61V700H502V642L122 59H505V0Z" transform="translate(0.0, 72) scale(0.072, -0.072)" /><path d="M270 -11Q205 -11 154.5 19.5Q104 50 75.5 106.5Q47 163 47 240Q47 315 75.5 371.0Q104 427 154.0 458.5Q204 490 268 490Q333 490 378.5 457.5Q424 425 448.0 373.5Q472 322 472 265V245H108Q106 155 150.5 99.5Q195 44 271 44Q327 44 365.0 72.5Q403 101 427 157L477 128Q413 -11 270 -11ZM112 297H412Q407 336 387.5 368.0Q368 400 337.5 419.0Q307 438 268 438Q207 438 165.5 400.5Q124 363 112 297Z" transform="translate(39.744, 72) scale(0.072, -0.072)" /><path d="M74 0V479H131L133 411Q156 445 194.5 468.0Q233 491 282 491Q359 491 406.0 442.0Q453 393 453 302V0H393V293Q393 363 359.5 398.0Q326 433 273 433Q233 433 201.5 415.5Q170 398 152.5 368.5Q135 339 135 303V0Z" transform="translate(77.472, 72) scale(0.072, -0.072)" /><path d="M84 0V700H145V393L481 700H565L202 372L586 0H502L145 353V0Z" transform="translate(135.648, 72) scale(0.072, -0.072)" /><path d="M202 -9Q132 -10 88.5 23.0Q45 56 45 119Q45 167 77.5 203.0Q110 239 160.5 259.5Q211 280 265 280Q339 280 382 245V327Q382 394 354.0 414.5Q326 435 264 435Q224 435 175.0 420.5Q126 406 92 384L63 432Q102 457 157.5 474.0Q213 491 264 491Q355 491 398.0 456.0Q441 421 441 327V62Q441 43 451.5 40.5Q462 38 498 45V2Q488 -2 471.0 -5.5Q454 -9 439 -9Q405 -9 395.0 5.0Q385 19 383 58Q352 24 301.0 8.0Q250 -8 202 -9ZM205 46Q253 47 294.5 61.0Q336 75 360.5 101.5Q385 128 383 166Q380 197 349.0 212.5Q318 228 269 227Q228 227 190.0 213.0Q152 199 128.5 174.5Q105 150 105 118Q105 81 133.0 63.5Q161 46 205 46Z" transform="translate(179.208, 72) scale(0.072, -0.072)" /><path d="M74 0V722H135V283L354 479H438L190 262L448 0H369L135 241V0Z" transform="translate(217.728, 72) scale(0.072, -0.072)" /><path d="M236 -11Q160 -11 113.0 38.0Q66 87 66 178V479H126V186Q126 116 159.5 81.0Q193 46 246 46Q307 46 345.0 84.0Q383 122 383 177V479H444V1H387L385 68Q364 35 325.0 12.0Q286 -11 236 -11Z" transform="translate(252.072, 72) scale(0.072, -0.072)" /><path d="M372 -13Q278 -13 204.5 33.0Q131 79 89.0 161.0Q47 243 47 351Q47 459 89.0 541.0Q131 623 204.5 669.0Q278 715 372 715Q445 715 504.5 689.5Q564 664 607 617L565 571Q494 654 372 654Q294 654 235.0 615.5Q176 577 143.0 509.0Q110 441 110 351Q110 262 143.0 193.0Q176 124 235.0 85.5Q294 47 372 47Q427 47 467.0 58.0Q507 69 544 91V299H394V358H606V53Q574 31 516.5 9.0Q459 -13 372 -13Z" transform="translate(309.6, 72) scale(0.072, -0.072)" /><path d="M269 -11Q205 -11 155.0 21.0Q105 53 76.0 109.5Q47 166 47 240Q47 314 76.0 370.5Q105 427 155.0 459.0Q205 491 269 491Q334 491 384.0 459.0Q434 427 463.0 370.5Q492 314 492 240Q492 166 463.0 109.5Q434 53 384.0 21.0Q334 -11 269 -11ZM269 46Q316 46 352.5 70.0Q389 94 410.0 137.5Q431 181 431 240Q431 299 410.0 342.5Q389 386 352.5 410.0Q316 434 269 434Q199 434 153.5 381.5Q108 329 108 240Q108 152 153.5 99.0Q199 46 269 46Z" transform="translate(358.05600000000004, 72) scale(0.072, -0.072)" /><path d="M261 -11Q197 -11 165.0 16.0Q133 43 133 113V423H29V479H133V655H193V479H339V423H193V123Q193 78 212.0 61.5Q231 45 271 45Q288 45 307.0 50.0Q326 55 339 61V2Q325 -3 303.0 -7.0Q281 -11 261 -11Z" transform="translate(396.86400000000003, 72) scale(0.072, -0.072)" /><path d="M74 0V722H135V411Q156 445 194.5 468.0Q233 491 282 491Q359 491 406.0 442.0Q453 393 453 302V0H393V293Q393 363 359.5 398.0Q326 433 273 433Q233 433 201.5 415.5Q170 398 152.5 368.5Q135 339 135 303V0Z" transform="translate(424.00800000000004, 72) scale(0.072, -0.072)" /><path d="M91 0V479H151V0ZM121 583Q102 583 88.0 596.5Q74 610 74 629Q74 649 88.0 662.0Q102 675 121 675Q140 675 153.0 662.0Q166 649 166 629Q166 610 153.0 596.5Q140 583 121 583Z" transform="translate(462.02400000000006, 72) scale(0.072, -0.072)" /><path d="M269 -11Q205 -11 155.0 20.5Q105 52 76.0 109.0Q47 166 47 240Q47 314 76.0 370.5Q105 427 155.0 458.5Q205 490 269 490Q320 490 363.5 469.5Q407 449 438 409L390 373Q345 433 269 433Q199 433 153.5 380.5Q108 328 108 240Q108 152 153.5 99.0Q199 46 269 46Q345 46 390 106L438 70Q374 -11 269 -11Z" transform="translate(479.37600000000003, 72) scale(0.072, -0.072)" /><path d="M84 0V700H145L540 110V700H602V0H542L145 596V0Z" transform="translate(534.456, 72) scale(0.072, -0.072)" /><path d="M270 -11Q205 -11 154.5 19.5Q104 50 75.5 106.5Q47 163 47 240Q47 315 75.5 371.0Q104 427 154.0 458.5Q204 490 268 490Q333 490 378.5 457.5Q424 425 448.0 373.5Q472 322 472 265V245H108Q106 155 150.5 99.5Q195 44 271 44Q327 44 365.0 72.5Q403 101 427 157L477 128Q413 -11 270 -11ZM112 297H412Q407 336 387.5 368.0Q368 400 337.5 419.0Q307 438 268 438Q207 438 165.5 400.5Q124 363 112 297Z" transform="translate(583.848, 72) scale(0.072, -0.072)" /><path d="M179 0 29 479H89L204 98L317 479H366L479 98L594 479H654L504 0H455L342 382L227 0Z" transform="translate(621.5759999999999, 72) scale(0.072, -0.072)" /></g></svg>
